X: 1
T: di Sapozhkelekh  [Am]
O: Klezmer Conservatory Band
S: printed MS from Steve Rauch
Z: 2008 John Chambers <jc:trillian.mit.edu>
R: horra
M: 3/4
L: 1/8
K: Am
(3A,CE \
| "Am"A3 G^FE | _E3 CB,A, | "Am"E E3 E2 | E4 (3A,CE \
| "Am"A3 G^FE | _E3 CB,A, | "Am"CA,3 A,2 | A,4 (3EF^F |
| "C"G3 FFE | E3 DDC | "D"D2 D2 D2 | D4 (3CD^D \
| "Am"E3 DDC | "E7"C3 B,B,C | "Am"A,3 AEC | A,6 |]
[|"Dm"D2 D2 D2 | DD D4 | "Dm"D2 D2 DE | "Am"CB, A,4 \
| "Am"E3 DDC | "Dm"C3 B,B,A,| "Am"C6- | C6 |
| "Dm"D4 DA, | DD D4 | "G"G3 FED | "Am"CB, A,4 \
| "Am"E3 DDC | "E7"C3 B,B,C | "Am"A,3 AEC | A,6 |]

%%sep 1 1 500
%%sep 1 1 500

